;FLAVOR:Marlin
;TIME:430
;Filament used: 0.15675m
;Layer height: 0.2
;MINX:-4.8
;MINY:-4.8
;MINZ:0.3
;MAXX:4.8
;MAXY:4.8
;MAXZ:9.9
;Generated with Cura_SteamEngine 4.11.0
M104 S200
M105
M109 S200
M82 ;absolute extrusion mode
G28 ;Home
G1 Z15.0 F6000 ;Move the platform down 15mm
;Prime the extruder
G92 E0
G1 F200 E3
G92 E0
G92 E0
G92 E0
G1 F1500 E-6.5
;LAYER_COUNT:50
;LAYER:0
M107
;MESH:Cube10.stl
G0 F3600 X-4.4 Y4.4 Z0.3
;TYPE:WALL-INNER
G1 F1500 E0
G1 F1800 X-4.4 Y-4.4 E0.16553
G1 X4.4 Y-4.4 E0.33107
G1 X4.4 Y4.4 E0.4966
G1 X-4.4 Y4.4 E0.66213
G0 F3600 X-4.8 Y4.8
;TYPE:WALL-OUTER
G1 F1800 X-4.8 Y-4.8 E0.84271
G1 X4.8 Y-4.8 E1.02329
G1 X4.8 Y4.8 E1.20388
G1 X-4.8 Y4.8 E1.38446
G0 F3600 X-4.8 Y4.6
G0 X-4.01 Y4.01
;TYPE:SKIN
G1 F1800 X-4.01 Y-4.01 E1.53532
G1 X4.01 Y-4.01 E1.68618
G1 X4.01 Y4.01 E1.83704
G1 X-4.01 Y4.01 E1.9879
G0 F3600 X-3.829 Y3.524
G1 F1800 X-3.524 Y3.829 E1.99601
G0 F3600 X-2.958 Y3.829
G1 F1800 X-3.829 Y2.958 E2.01918
G0 F3600 X-3.829 Y2.392
G1 F1800 X-2.392 Y3.829 E2.05741
G0 F3600 X-1.827 Y3.829
G1 F1800 X-3.829 Y1.827 E2.11067
G0 F3600 X-3.829 Y1.261
G1 F1800 X-1.261 Y3.829 E2.17898
G0 F3600 X-.695 Y3.829
G1 F1800 X-3.829 Y0.695 E2.26235
G0 F3600 X-3.829 Y0.13
G1 F1800 X-.13 Y3.829 E2.36076
G0 F3600 X0.435 Y3.829
G1 F1800 X-3.829 Y-.435 E2.47419
G0 F3600 X-3.829 Y-1.001
G1 F1800 X1.001 Y3.829 E2.60268
G0 F3600 X1.566 Y3.829
G1 F1800 X-3.829 Y-1.566 E2.74619
G0 F3600 X-3.829 Y-2.132
G1 F1800 X2.132 Y3.829 E2.90477
G0 F3600 X2.698 Y3.829
G1 F1800 X-3.829 Y-2.698 E3.0784
G0 F3600 X-3.829 Y-3.264
G1 F1800 X3.264 Y3.829 E3.26709
G0 F3600 X3.829 Y3.829
G1 F1800 X-3.829 Y-3.829 E3.47081
G0 F3600 X-3.264 Y-3.829
G1 F1800 X3.829 Y3.264 E3.6595
G0 F3600 X3.829 Y2.698
G1 F1800 X-2.698 Y-3.829 E3.83313
G0 F3600 X-2.132 Y-3.829
G1 F1800 X3.829 Y2.132 E3.99171
G0 F3600 X3.829 Y1.566
G1 F1800 X-1.566 Y-3.829 E4.13522
G0 F3600 X-1.001 Y-3.829
G1 F1800 X3.829 Y1.001 E4.26371
G0 F3600 X3.829 Y0.435
G1 F1800 X-.435 Y-3.829 E4.37714
G0 F3600 X0.13 Y-3.829
G1 F1800 X3.829 Y-.13 E4.47555
G0 F3600 X3.829 Y-.695
G1 F1800 X0.695 Y-3.829 E4.55892
G0 F3600 X1.261 Y-3.829
G1 F1800 X3.829 Y-1.261 E4.62723
G0 F3600 X3.829 Y-1.827
G1 F1800 X1.827 Y-3.829 E4.68049
G0 F3600 X2.392 Y-3.829
G1 F1800 X3.829 Y-2.392 E4.71872
G0 F3600 X3.829 Y-2.958
G1 F1800 X2.958 Y-3.829 E4.74189
G0 F3600 X3.524 Y-3.829
G1 F1800 X3.829 Y-3.524 E4.75
;MESH:NONMESH
G0 F600 X3.829 Y-3.524 Z0.5
G0 F3600 X-4.33 Y4.33
G0 X-4.4 Y4.4
;TIME_ELAPSED:11.514452
;LAYER:1
M106 S255
;TYPE:WALL-INNER
;MESH:Cube10.stl
G1 F2700 X-4.4 Y-4.4 E4.86036
G1 X4.4 Y-4.4 E4.97071
G1 X4.4 Y4.4 E5.08107
G1 X-4.4 Y4.4 E5.19142
G0 F5400 X-4.8 Y4.8
;TYPE:WALL-OUTER
G1 F1800 X-4.8 Y-4.8 E5.31181
G1 X4.8 Y-4.8 E5.4322
G1 X4.8 Y4.8 E5.55258
G1 X-4.8 Y4.8 E5.67297
G0 F5400 X-4.8 Y4.6
G0 X-4.01 Y4.01
;TYPE:SKIN
G1 F1800 X-4.01 Y-4.01 E5.77355
G1 X4.01 Y-4.01 E5.87412
G1 X4.01 Y4.01 E5.97469
G1 X-4.01 Y4.01 E6.07527
G0 F5400 X-3.829 Y-3.524
G1 F1800 X-3.524 Y-3.829 E6.08068
G0 F5400 X-2.958 Y-3.829
G1 F1800 X-3.829 Y-2.958 E6.09612
G0 F5400 X-3.829 Y-2.392
G1 F1800 X-2.392 Y-3.829 E6.12161
G0 F5400 X-1.827 Y-3.829
G1 F1800 X-3.829 Y-1.827 E6.15711
G0 F5400 X-3.829 Y-1.261
G1 F1800 X-1.261 Y-3.829 E6.20266
G0 F5400 X-.695 Y-3.829
G1 F1800 X-3.829 Y-.695 E6.25824
G0 F5400 X-3.829 Y-.13
G1 F1800 X-.13 Y-3.829 E6.32384
G0 F5400 X0.435 Y-3.829
G1 F1800 X-3.829 Y0.435 E6.39946
G0 F5400 X-3.829 Y1.001
G1 F1800 X1.001 Y-3.829 E6.48512
G0 F5400 X1.566 Y-3.829
G1 F1800 X-3.829 Y1.566 E6.5808
G0 F5400 X-3.829 Y2.132
G1 F1800 X2.132 Y-3.829 E6.68651
G0 F5400 X2.698 Y-3.829
G1 F1800 X-3.829 Y2.698 E6.80227
G0 F5400 X-3.829 Y3.264
G1 F1800 X3.264 Y-3.829 E6.92806
G0 F5400 X3.829 Y-3.829
G1 F1800 X-3.829 Y3.829 E7.06387
G0 F5400 X-3.264 Y3.829
G1 F1800 X3.829 Y-3.264 E7.18967
G0 F5400 X3.829 Y-2.698
G1 F1800 X-2.698 Y3.829 E7.30542
G0 F5400 X-2.132 Y3.829
G1 F1800 X3.829 Y-2.132 E7.41114
G0 F5400 X3.829 Y-1.566
G1 F1800 X-1.566 Y3.829 E7.50682
G0 F5400 X-1.001 Y3.829
G1 F1800 X3.829 Y-1.001 E7.59248
G0 F5400 X3.829 Y-.435
G1 F1800 X-.435 Y3.829 E7.6681
G0 F5400 X0.13 Y3.829
G1 F1800 X3.829 Y0.13 E7.7337
G0 F5400 X3.829 Y0.695
G1 F1800 X0.695 Y3.829 E7.78928
G0 F5400 X1.261 Y3.829
G1 F1800 X3.829 Y1.261 E7.83482
G0 F5400 X3.829 Y1.827
G1 F1800 X1.827 Y3.829 E7.87033
G0 F5400 X2.392 Y3.829
G1 F1800 X3.829 Y2.392 E7.89581
G0 F5400 X3.829 Y2.958
G1 F1800 X2.958 Y3.829 E7.91126
G0 F5400 X3.524 Y3.829
G1 F1800 X3.829 Y3.524 E7.91667
;MESH:NONMESH
G0 F600 X3.829 Y3.524 Z0.7
G0 F5400 X-4.33 Y4.33
G0 X-4.4 Y4.4
;TIME_ELAPSED:20.455253
;LAYER:2
;TYPE:WALL-INNER
;MESH:Cube10.stl
G1 F3600 X-4.4 Y-4.4 E8.02702
G1 X4.4 Y-4.4 E8.13738
G1 X4.4 Y4.4 E8.24773
G1 X-4.4 Y4.4 E8.35809
G0 F7200 X-4.8 Y4.8
;TYPE:WALL-OUTER
G1 F1800 X-4.8 Y-4.8 E8.47848
G1 X4.8 Y-4.8 E8.59886
G1 X4.8 Y4.8 E8.71925
G1 X-4.8 Y4.8 E8.83964
G0 F7200 X-4.8 Y4.6
G0 X-4.01 Y4.01
;TYPE:SKIN
G1 F1800 X-4.01 Y-4.01 E8.94021
G1 X4.01 Y-4.01 E9.04079
G1 X4.01 Y4.01 E9.14136
G1 X-4.01 Y4.01 E9.24193
G0 F7200 X-3.829 Y3.524
G1 F1800 X-3.524 Y3.829 E9.24734
G0 F7200 X-2.958 Y3.829
G1 F1800 X-3.829 Y2.958 E9.26279
G0 F7200 X-3.829 Y2.392
G1 F1800 X-2.392 Y3.829 E9.28827
G0 F7200 X-1.827 Y3.829
G1 F1800 X-3.829 Y1.827 E9.32378
G0 F7200 X-3.829 Y1.261
G1 F1800 X-1.261 Y3.829 E9.36932
G0 F7200 X-.695 Y3.829
G1 F1800 X-3.829 Y0.695 E9.4249
G0 F7200 X-3.829 Y0.13
G1 F1800 X-.13 Y3.829 E9.4905
G0 F7200 X0.435 Y3.829
G1 F1800 X-3.829 Y-.435 E9.56612
G0 F7200 X-3.829 Y-1.001
G1 F1800 X1.001 Y3.829 E9.65178
G0 F7200 X1.566 Y3.829
G1 F1800 X-3.829 Y-1.566 E9.74746
G0 F7200 X-3.829 Y-2.132
G1 F1800 X2.132 Y3.829 E9.85318
G0 F7200 X2.698 Y3.829
G1 F1800 X-3.829 Y-2.698 E9.96893
G0 F7200 X-3.829 Y-3.264
G1 F1800 X3.264 Y3.829 E10.09473
G0 F7200 X3.829 Y3.829
G1 F1800 X-3.829 Y-3.829 E10.23054
G0 F7200 X-3.264 Y-3.829
G1 F1800 X3.829 Y3.264 E10.35633
G0 F7200 X3.829 Y2.698
G1 F1800 X-2.698 Y-3.829 E10.47209
G0 F7200 X-2.132 Y-3.829
G1 F1800 X3.829 Y2.132 E10.5778
G0 F7200 X3.829 Y1.566
G1 F1800 X-1.566 Y-3.829 E10.67348
G0 F7200 X-1.001 Y-3.829
G1 F1800 X3.829 Y1.001 E10.75914
G0 F7200 X3.829 Y0.435
G1 F1800 X-.435 Y-3.829 E10.83476
G0 F7200 X0.13 Y-3.829
G1 F1800 X3.829 Y-.13 E10.90036
G0 F7200 X3.829 Y-.695
G1 F1800 X0.695 Y-3.829 E10.95595
G0 F7200 X1.261 Y-3.829
G1 F1800 X3.829 Y-1.261 E11.00149
G0 F7200 X3.829 Y-1.827
G1 F1800 X1.827 Y-3.829 E11.03699
G0 F7200 X2.392 Y-3.829
G1 F1800 X3.829 Y-2.392 E11.06248
G0 F7200 X3.829 Y-2.958
G1 F1800 X2.958 Y-3.829 E11.07792
G0 F7200 X3.524 Y-3.829
G1 F1800 X3.829 Y-3.524 E11.08333
;MESH:NONMESH
G0 F600 X3.829 Y-3.524 Z0.9
G0 F7200 X-4.33 Y4.33
G0 X-4.4 Y4.4
;TIME_ELAPSED:29.160283
;LAYER:3
;TYPE:WALL-INNER
;MESH:Cube10.stl
G1 F3600 X-4.4 Y-4.4 E11.19369
G1 X4.4 Y-4.4 E11.30404
G1 X4.4 Y4.4 E11.4144
G1 X-4.4 Y4.4 E11.52475
G0 F7200 X-4.8 Y4.8
;TYPE:WALL-OUTER
G1 F1800 X-4.8 Y-4.8 E11.64514
G1 X4.8 Y-4.8 E11.76553
G1 X4.8 Y4.8 E11.88592
G1 X-4.8 Y4.8 E12.00631
G0 F7200 X-4.8 Y4.6
G0 X-4.01 Y4.01
;TYPE:SKIN
G1 F1800 X-4.01 Y-4.01 E12.10688
G1 X4.01 Y-4.01 E12.20745
G1 X4.01 Y4.01 E12.30803
G1 X-4.01 Y4.01 E12.4086
G0 F7200 X-3.829 Y-3.524
G1 F1800 X-3.524 Y-3.829 E12.41401
G0 F7200 X-2.958 Y-3.829
G1 F1800 X-3.829 Y-2.958 E12.42946
G0 F7200 X-3.829 Y-2.392
G1 F1800 X-2.392 Y-3.829 E12.45494
G0 F7200 X-1.827 Y-3.829
G1 F1800 X-3.829 Y-1.827 E12.49045
G0 F7200 X-3.829 Y-1.261
G1 F1800 X-1.261 Y-3.829 E12.53599
G0 F7200 X-.695 Y-3.829
G1 F1800 X-3.829 Y-.695 E12.59157
G0 F7200 X-3.829 Y-.13
G1 F1800 X-.13 Y-3.829 E12.65717
G0 F7200 X0.435 Y-3.829
G1 F1800 X-3.829 Y0.435 E12.73279
G0 F7200 X-3.829 Y1.001
G1 F1800 X1.001 Y-3.829 E12.81845
G0 F7200 X1.566 Y-3.829
G1 F1800 X-3.829 Y1.566 E12.91413
G0 F7200 X-3.829 Y2.132
G1 F1800 X2.132 Y-3.829 E13.01985
G0 F7200 X2.698 Y-3.829
G1 F1800 X-3.829 Y2.698 E13.1356
G0 F7200 X-3.829 Y3.264
G1 F1800 X3.264 Y-3.829 E13.26139
G0 F7200 X3.829 Y-3.829
G1 F1800 X-3.829 Y3.829 E13.39721
G0 F7200 X-3.264 Y3.829
G1 F1800 X3.829 Y-3.264 E13.523
G0 F7200 X3.829 Y-2.698
G1 F1800 X-2.698 Y3.829 E13.63875
G0 F7200 X-2.132 Y3.829
G1 F1800 X3.829 Y-2.132 E13.74447
G0 F7200 X3.829 Y-1.566
G1 F1800 X-1.566 Y3.829 E13.84015
G0 F7200 X-1.001 Y3.829
G1 F1800 X3.829 Y-1.001 E13.92581
G0 F7200 X3.829 Y-.435
G1 F1800 X-.435 Y3.829 E14.00143
G0 F7200 X0.13 Y3.829
G1 F1800 X3.829 Y0.13 E14.06703
G0 F7200 X3.829 Y0.695
G1 F1800 X0.695 Y3.829 E14.12261
G0 F7200 X1.261 Y3.829
G1 F1800 X3.829 Y1.261 E14.16815
G0 F7200 X3.829 Y1.827
G1 F1800 X1.827 Y3.829 E14.20366
G0 F7200 X2.392 Y3.829
G1 F1800 X3.829 Y2.392 E14.22914
G0 F7200 X3.829 Y2.958
G1 F1800 X2.958 Y3.829 E14.24459
G0 F7200 X3.524 Y3.829
G1 F1800 X3.829 Y3.524 E14.25
;MESH:NONMESH
G0 F600 X3.829 Y3.524 Z1.1
G0 F7200 X-4.33 Y4.33
G0 X-4.4 Y4.4
;TIME_ELAPSED:37.907637
;LAYER:4
;TYPE:WALL-INNER
;MESH:Cube10.stl
G1 F3600 X-4.4 Y-4.4 E14.36036
G1 X4.4 Y-4.4 E14.47071
G1 X4.4 Y4.4 E14.58107
G1 X-4.4 Y4.4 E14.69142
G0 F7200 X-4.8 Y4.8
;TYPE:WALL-OUTER
G1 F1800 X-4.8 Y-4.8 E14.81181
G1 X4.8 Y-4.8 E14.9322
G1 X4.8 Y4.8 E15.05258
G1 X-4.8 Y4.8 E15.17297
G0 F7200 X-4.8 Y4.6
G0 X-4.01 Y4.01
;TYPE:SKIN
G1 F1800 X-4.01 Y-4.01 E15.27355
G1 X4.01 Y-4.01 E15.37412
G1 X4.01 Y4.01 E15.47469
G1 X-4.01 Y4.01 E15.57527
G0 F7200 X-3.829 Y3.524
G1 F1800 X-3.524 Y3.829 E15.58068
G0 F7200 X-2.958 Y3.829
G1 F1800 X-3.829 Y2.958 E15.59612
G0 F7200 X-3.829 Y2.392
G1 F1800 X-2.392 Y3.829 E15.62161
G0 F7200 X-1.827 Y3.829
G1 F1800 X-3.829 Y1.827 E15.65711
G0 F7200 X-3.829 Y1.261
G1 F1800 X-1.261 Y3.829 E15.70266
G0 F7200 X-.695 Y3.829
G1 F1800 X-3.829 Y0.695 E15.75824
G0 F7200 X-3.829 Y0.13
G1 F1800 X-.13 Y3.829 E15.82384
G0 F7200 X0.435 Y3.829
G1 F1800 X-3.829 Y-.435 E15.89946
G0 F7200 X-3.829 Y-1.001
G1 F1800 X1.001 Y3.829 E15.98512
G0 F7200 X1.566 Y3.829
G1 F1800 X-3.829 Y-1.566 E16.0808
G0 F7200 X-3.829 Y-2.132
G1 F1800 X2.132 Y3.829 E16.18651
G0 F7200 X2.698 Y3.829
G1 F1800 X-3.829 Y-2.698 E16.30227
G0 F7200 X-3.829 Y-3.264
G1 F1800 X3.264 Y3.829 E16.42806
G0 F7200 X3.829 Y3.829
G1 F1800 X-3.829 Y-3.829 E16.56387
G0 F7200 X-3.264 Y-3.829
G1 F1800 X3.829 Y3.264 E16.68967
G0 F7200 X3.829 Y2.698
G1 F1800 X-2.698 Y-3.829 E16.80542
G0 F7200 X-2.132 Y-3.829
G1 F1800 X3.829 Y2.132 E16.91114
G0 F7200 X3.829 Y1.566
G1 F1800 X-1.566 Y-3.829 E17.00682
G0 F7200 X-1.001 Y-3.829
G1 F1800 X3.829 Y1.001 E17.09248
G0 F7200 X3.829 Y0.435
G1 F1800 X-.435 Y-3.829 E17.1681
G0 F7200 X0.13 Y-3.829
G1 F1800 X3.829 Y-.13 E17.2337
G0 F7200 X3.829 Y-.695
G1 F1800 X0.695 Y-3.829 E17.28928
G0 F7200 X1.261 Y-3.829
G1 F1800 X3.829 Y-1.261 E17.33482
G0 F7200 X3.829 Y-1.827
G1 F1800 X1.827 Y-3.829 E17.37033
G0 F7200 X2.392 Y-3.829
G1 F1800 X3.829 Y-2.392 E17.39581
G0 F7200 X3.829 Y-2.958
G1 F1800 X2.958 Y-3.829 E17.41126
G0 F7200 X3.524 Y-3.829
G1 F1800 X3.829 Y-3.524 E17.41667
;MESH:NONMESH
G0 F600 X3.829 Y-3.524 Z1.3
G0 F7200 X-4.33 Y4.33
G0 X-4.4 Y4.4
;TIME_ELAPSED:46.612666
;LAYER:5
;TYPE:WALL-INNER
;MESH:Cube10.stl
G1 F3600 X-4.4 Y-4.4 E17.52702
G1 X4.4 Y-4.4 E17.63738
G1 X4.4 Y4.4 E17.74773
G1 X-4.4 Y4.4 E17.85809
G0 F7200 X-4.8 Y4.8
;TYPE:WALL-OUTER
G1 F1800 X-4.8 Y-4.8 E17.97848
G1 X4.8 Y-4.8 E18.09886
G1 X4.8 Y4.8 E18.21925
G1 X-4.8 Y4.8 E18.33964
G0 F7200 X-4.8 Y4.6
G0 X-4.01 Y4.01
;TYPE:SKIN
G1 F1800 X-4.01 Y-4.01 E18.44021
G1 X4.01 Y-4.01 E18.54079
G1 X4.01 Y4.01 E18.64136
G1 X-4.01 Y4.01 E18.74193
G0 F7200 X-3.829 Y-3.524
G1 F1800 X-3.524 Y-3.829 E18.74734
G0 F7200 X-2.958 Y-3.829
G1 F1800 X-3.829 Y-2.958 E18.76279
G0 F7200 X-3.829 Y-2.392
G1 F1800 X-2.392 Y-3.829 E18.78827
G0 F7200 X-1.827 Y-3.829
G1 F1800 X-3.829 Y-1.827 E18.82378
G0 F7200 X-3.829 Y-1.261
G1 F1800 X-1.261 Y-3.829 E18.86932
G0 F7200 X-.695 Y-3.829
G1 F1800 X-3.829 Y-.695 E18.9249
G0 F7200 X-3.829 Y-.13
G1 F1800 X-.13 Y-3.829 E18.9905
G0 F7200 X0.435 Y-3.829
G1 F1800 X-3.829 Y0.435 E19.06613
G0 F7200 X-3.829 Y1.001
G1 F1800 X1.001 Y-3.829 E19.15178
G0 F7200 X1.566 Y-3.829
G1 F1800 X-3.829 Y1.566 E19.24746
G0 F7200 X-3.829 Y2.132
G1 F1800 X2.132 Y-3.829 E19.35318
G0 F7200 X2.698 Y-3.829
G1 F1800 X-3.829 Y2.698 E19.46894
G0 F7200 X-3.829 Y3.264
G1 F1800 X3.264 Y-3.829 E19.59473
G0 F7200 X3.829 Y-3.829
G1 F1800 X-3.829 Y3.829 E19.73054
G0 F7200 X-3.264 Y3.829
G1 F1800 X3.829 Y-3.264 E19.85633
G0 F7200 X3.829 Y-2.698
G1 F1800 X-2.698 Y3.829 E19.97209
G0 F7200 X-2.132 Y3.829
G1 F1800 X3.829 Y-2.132 E20.0778
G0 F7200 X3.829 Y-1.566
G1 F1800 X-1.566 Y3.829 E20.17348
G0 F7200 X-1.001 Y3.829
G1 F1800 X3.829 Y-1.001 E20.25914
G0 F7200 X3.829 Y-.435
G1 F1800 X-.435 Y3.829 E20.33476
G0 F7200 X0.13 Y3.829
G1 F1800 X3.829 Y0.13 E20.40036
G0 F7200 X3.829 Y0.695
G1 F1800 X0.695 Y3.829 E20.45595
G0 F7200 X1.261 Y3.829
G1 F1800 X3.829 Y1.261 E20.50149
G0 F7200 X3.829 Y1.827
G1 F1800 X1.827 Y3.829 E20.53699
G0 F7200 X2.392 Y3.829
G1 F1800 X3.829 Y2.392 E20.56248
G0 F7200 X3.829 Y2.958
G1 F1800 X2.958 Y3.829 E20.57793
G0 F7200 X3.524 Y3.829
G1 F1800 X3.829 Y3.524 E20.58333
;MESH:NONMESH
G0 F600 X3.829 Y3.524 Z1.5
G0 F7200 X-4.33 Y4.33
G0 X-4.4 Y4.4
;TIME_ELAPSED:55.360020
;LAYER:6
;TYPE:WALL-INNER
;MESH:Cube10.stl
G1 F3600 X-4.4 Y-4.4 E20.69369
G1 X4.4 Y-4.4 E20.80404
G1 X4.4 Y4.4 E20.9144
G1 X-4.4 Y4.4 E21.02476
G0 F7200 X-4.8 Y4.8
;TYPE:WALL-OUTER
G1 F1800 X-4.8 Y-4.8 E21.14514
G1 X4.8 Y-4.8 E21.26553
G1 X4.8 Y4.8 E21.38592
G1 X-4.8 Y4.8 E21.50631
G0 F7200 X-4.8 Y4.6
G0 X-4.01 Y4.01
;TYPE:SKIN
G1 F1800 X-4.01 Y-4.01 E21.60688
G1 X4.01 Y-4.01 E21.70745
G1 X4.01 Y4.01 E21.80803
G1 X-4.01 Y4.01 E21.9086
G0 F7200 X-3.829 Y3.524
G1 F1800 X-3.524 Y3.829 E21.91401
G0 F7200 X-2.958 Y3.829
G1 F1800 X-3.829 Y2.958 E21.92946
G0 F7200 X-3.829 Y2.392
G1 F1800 X-2.392 Y3.829 E21.95494
G0 F7200 X-1.827 Y3.829
G1 F1800 X-3.829 Y1.827 E21.99045
G0 F7200 X-3.829 Y1.261
G1 F1800 X-1.261 Y3.829 E22.03599
G0 F7200 X-.695 Y3.829
G1 F1800 X-3.829 Y0.695 E22.09157
G0 F7200 X-3.829 Y0.13
G1 F1800 X-.13 Y3.829 E22.15717
G0 F7200 X0.435 Y3.829
G1 F1800 X-3.829 Y-.435 E22.23279
G0 F7200 X-3.829 Y-1.001
G1 F1800 X1.001 Y3.829 E22.31845
G0 F7200 X1.566 Y3.829
G1 F1800 X-3.829 Y-1.566 E22.41413
G0 F7200 X-3.829 Y-2.132
G1 F1800 X2.132 Y3.829 E22.51985
G0 F7200 X2.698 Y3.829
G1 F1800 X-3.829 Y-2.698 E22.6356
G0 F7200 X-3.829 Y-3.264
G1 F1800 X3.264 Y3.829 E22.76139
G0 F7200 X3.829 Y3.829
G1 F1800 X-3.829 Y-3.829 E22.89721
G0 F7200 X-3.264 Y-3.829
G1 F1800 X3.829 Y3.264 E23.023
G0 F7200 X3.829 Y2.698
G1 F1800 X-2.698 Y-3.829 E23.13875
G0 F7200 X-2.132 Y-3.829
G1 F1800 X3.829 Y2.132 E23.24447
G0 F7200 X3.829 Y1.566
G1 F1800 X-1.566 Y-3.829 E23.34015
G0 F7200 X-1.001 Y-3.829
G1 F1800 X3.829 Y1.001 E23.42581
G0 F7200 X3.829 Y0.435
G1 F1800 X-.435 Y-3.829 E23.50143
G0 F7200 X0.13 Y-3.829
G1 F1800 X3.829 Y-.13 E23.56703
G0 F7200 X3.829 Y-.695
G1 F1800 X0.695 Y-3.829 E23.62261
G0 F7200 X1.261 Y-3.829
G1 F1800 X3.829 Y-1.261 E23.66816
G0 F7200 X3.829 Y-1.827
G1 F1800 X1.827 Y-3.829 E23.70366
G0 F7200 X2.392 Y-3.829
G1 F1800 X3.829 Y-2.392 E23.72915
G0 F7200 X3.829 Y-2.958
G1 F1800 X2.958 Y-3.829 E23.74459
G0 F7200 X3.524 Y-3.829
G1 F1800 X3.829 Y-3.524 E23.75
;MESH:NONMESH
G0 F600 X3.829 Y-3.524 Z1.7
G0 F7200 X-4.33 Y4.33
G0 X-4.4 Y4.4
;TIME_ELAPSED:64.065050
;LAYER:7
;TYPE:WALL-INNER
;MESH:Cube10.stl
G1 F3600 X-4.4 Y-4.4 E23.86036
G1 X4.4 Y-4.4 E23.97071
G1 X4.4 Y4.4 E24.08107
G1 X-4.4 Y4.4 E24.19142
G0 F7200 X-4.8 Y4.8
;TYPE:WALL-OUTER
G1 F1800 X-4.8 Y-4.8 E24.31181
G1 X4.8 Y-4.8 E24.4322
G1 X4.8 Y4.8 E24.55258
G1 X-4.8 Y4.8 E24.67297
G0 F7200 X-4.8 Y4.6
G0 X-4.01 Y4.01
;TYPE:SKIN
G1 F1800 X-4.01 Y-4.01 E24.77355
G1 X4.01 Y-4.01 E24.87412
G1 X4.01 Y4.01 E24.97469
G1 X-4.01 Y4.01 E25.07527
G0 F7200 X-3.829 Y-3.524
G1 F1800 X-3.524 Y-3.829 E25.08068
G0 F7200 X-2.958 Y-3.829
G1 F1800 X-3.829 Y-2.958 E25.09612
G0 F7200 X-3.829 Y-2.392
G1 F1800 X-2.392 Y-3.829 E25.12161
G0 F7200 X-1.827 Y-3.829
G1 F1800 X-3.829 Y-1.827 E25.15711
G0 F7200 X-3.829 Y-1.261
G1 F1800 X-1.261 Y-3.829 E25.20266
G0 F7200 X-.695 Y-3.829
G1 F1800 X-3.829 Y-.695 E25.25824
G0 F7200 X-3.829 Y-.13
G1 F1800 X-.13 Y-3.829 E25.32384
G0 F7200 X0.435 Y-3.829
G1 F1800 X-3.829 Y0.435 E25.39946
G0 F7200 X-3.829 Y1.001
G1 F1800 X1.001 Y-3.829 E25.48512
G0 F7200 X1.566 Y-3.829
G1 F1800 X-3.829 Y1.566 E25.5808
