;FLAVOR:UltiGCode
;TIME:1934
;MATERIAL:5908
;MATERIAL2:0
;NOZZLE_DIAMETER:0.4
;MINX:102.972
;MINY:84.627
;MINZ:0.27
;MAXX:120.029
;MAXY:138.374
;MAXZ:24.47
;Generated with Cura_SteamEngine 4.1.0
M82 ;absolute extrusion mode

G92 E0
G92 E0
G10
;LAYER_COUNT:122
;LAYER:0
M107
;MESH:FalangeMedDist_Medio.stl
G0 F4500 X112.635 Y132.153 Z0.27
;TYPE:WALL-INNER
G11
G1 F1057.3 X110.307 Y132.154 E0.25142
G1 X110.234 Y131.846 E0.28561
G1 X110.231 Y131.56 E0.3165
G1 X110.231 Y131.52 E0.32082
G1 X110.286 Y131.247 E0.3509
G1 X110.302 Y131.209 E0.35535
G1 X110.342 Y131.209 E0.35967
G1 X112.589 Y131.21 E0.60234
G1 X112.693 Y131.212 E0.61358
G1 X112.76 Y131.479 E0.64331
G1 X112.764 Y131.814 E0.67949
G1 X112.764 Y131.867 E0.68522
G1 X112.714 Y132.09 E0.7099
G1 X112.688 Y132.153 E0.71726
G1 X112.635 Y132.153 E0.72298
G0 F4500 X112.928 Y130.817
G1 F1057.3 X112.991 Y130.879 E0.73253
G1 X113.049 Y130.986 E0.74567
G1 X113.16 Y131.43 E0.7951
G1 X113.164 Y131.909 E0.84683
G1 X113.096 Y132.212 E0.88037
G1 X113.009 Y132.43 E0.90572
G1 X112.932 Y132.544 E0.92058
G1 X112.906 Y132.553 E0.92355
G1 X110.095 Y132.554 E1.22714
G1 X110.06 Y132.544 E1.23107
G1 X110.033 Y132.511 E1.23567
G1 X109.932 Y132.306 E1.26036
G1 X109.834 Y131.893 E1.3062
G1 X109.831 Y131.482 E1.35059
G1 X109.901 Y131.133 E1.38903
G1 X109.987 Y130.922 E1.41364
G1 X110.063 Y130.812 E1.42808
G1 X110.072 Y130.809 E1.4291
G1 X112.597 Y130.81 E1.7018
G1 X112.928 Y130.817 E1.73756
G0 F4500 X113.055 Y130.419
G1 F1057.3 X113.115 Y130.439 E1.74439
G1 X113.314 Y130.635 E1.77456
G1 X113.425 Y130.84 E1.79973
G1 X113.56 Y131.38 E1.85985
G1 X113.564 Y131.95 E1.92141
G1 X113.479 Y132.332 E1.96367
G1 X113.364 Y132.619 E1.99707
G1 X113.234 Y132.812 E2.0222
G1 X113.125 Y132.906 E2.03774
G1 X112.962 Y132.953 E2.05606
G1 X110.038 Y132.954 E2.37186
G1 X109.853 Y132.9 E2.39267
G1 X109.81 Y132.867 E2.39852
G1 X109.694 Y132.729 E2.41799
G1 X109.554 Y132.445 E2.45219
G1 X109.434 Y131.94 E2.50825
G1 X109.431 Y131.445 E2.56171
G1 X109.517 Y131.015 E2.60907
G1 X109.632 Y130.734 E2.64186
G1 X109.765 Y130.539 E2.66735
G1 X109.86 Y130.453 E2.68119
G1 X110.016 Y130.409 E2.6987
G1 X112.605 Y130.41 E2.97831
G1 X113.055 Y130.419 E3.02692
G0 F4500 X113.123 Y130.02
;TYPE:WALL-OUTER
G1 F1057.3 X113.33 Y130.088 E3.05045
G1 X113.637 Y130.391 E3.09704
G1 X113.801 Y130.694 E3.13425
G1 X113.96 Y131.33 E3.20505
G1 X113.964 Y131.995 E3.27687
G1 X113.864 Y132.446 E3.32676
G1 X113.718 Y132.81 E3.36912
G1 X113.536 Y133.08 E3.40428
G1 X113.322 Y133.265 E3.43483
G1 X113.019 Y133.353 E3.46891
G1 X109.981 Y133.354 E3.79701
G1 X109.669 Y133.263 E3.83211
G1 X109.532 Y133.159 E3.85069
G1 X109.356 Y132.949 E3.88028
G1 X109.176 Y132.583 E3.92433
G1 X109.034 Y131.988 E3.9904
G1 X109.031 Y131.408 E4.05304
G1 X109.133 Y130.897 E4.10931
G1 X109.278 Y130.543 E4.15063
G1 X109.461 Y130.275 E4.18568
G1 X109.661 Y130.093 E4.21488
G1 X109.962 Y130.009 E4.24863
G1 X112.613 Y130.01 E4.53494
G1 X113.123 Y130.02 E4.59003
G0 F4500 X113.313 Y130.082
G0 X113.063 Y130.524
G0 X112.371 Y131.6
;TYPE:SKIN
G1 F1057.3 X112.373 Y131.763 E4.60764
G1 X110.623 Y131.764 E4.79664
G1 X110.622 Y131.599 E4.81446
G1 X112.371 Y131.6 E5.00335
;MESH:NONMESH
G0 F4500 X110.792 Y130.509
G0 X110.793 Y130.147
;TIME_ELAPSED:6.921142
;LAYER:1
M106 S255
;MESH:FalangeMedDist_Medio.stl
G0 F6750 X110.793 Y130.147 Z0.47
;TYPE:WALL-INNER
G1 F1268.4 X111.417 Y130.177 E5.05333
G1 X112.054 Y130.158 E5.10431
G1 X112.646 Y130.089 E5.15199
G1 X113.02 Y130.031 E5.18227
G1 X113.17 Y130.219 E5.20151
G1 X113.288 Y130.461 E5.22305
G1 X113.43 Y130.944 E5.26332
G1 X113.483 Y131.307 E5.29267
G1 X113.497 Y131.713 E5.32517
G1 X113.47 Y132.146 E5.35988
G1 X113.403 Y132.491 E5.38799
G1 X113.29 Y132.862 E5.41902
G1 X113.151 Y133.136 E5.4436
G1 X112.995 Y133.332 E5.46364
G1 X112.966 Y133.352 E5.46646
G1 X110.071 Y133.356 E5.69806
G1 X110.023 Y133.349 E5.70194
G1 X109.928 Y133.258 E5.71246
G1 X109.809 Y133.078 E5.72972
G1 X109.641 Y132.67 E5.76502
G1 X109.537 Y132.205 E5.80314
G1 X109.496 Y131.66 E5.84686
G1 X109.513 Y131.302 E5.87554
G1 X109.569 Y130.934 E5.90531
G1 X109.676 Y130.549 E5.93728
G1 X109.795 Y130.273 E5.96133
G1 X109.906 Y130.102 E5.97764
G1 X109.979 Y130.032 E5.98573
G1 X110.793 Y130.147 E6.05149
G0 F6750 X110.831 Y129.748
G1 F1268.4 X111.421 Y129.777 E6.09875
G1 X112.025 Y129.759 E6.14709
G1 X112.592 Y129.693 E6.19276
G1 X113.103 Y129.613 E6.23414
G1 X113.152 Y129.631 E6.23831
G1 X113.298 Y129.737 E6.25275
G1 X113.51 Y130.004 E6.28002
G1 X113.663 Y130.317 E6.30789
G1 X113.822 Y130.86 E6.35316
G1 X113.882 Y131.271 E6.38639
G1 X113.898 Y131.714 E6.42185
G1 X113.867 Y132.201 E6.46089
G1 X113.792 Y132.587 E6.49234
G1 X113.663 Y133.012 E6.52788
G1 X113.49 Y133.352 E6.5584
G1 X113.274 Y133.623 E6.58612
G1 X113.141 Y133.718 E6.59919
G1 X113.036 Y133.752 E6.60802
G1 X110.04 Y133.756 E6.8477
G1 X109.891 Y133.734 E6.85975
G1 X109.797 Y133.686 E6.8682
G1 X109.618 Y133.514 E6.88806
G1 X109.453 Y133.264 E6.91202
G1 X109.259 Y132.795 E6.95262
G1 X109.14 Y132.26 E6.99647
G1 X109.095 Y131.663 E7.04436
G1 X109.114 Y131.271 E7.07576
G1 X109.178 Y130.85 E7.10983
G1 X109.3 Y130.41 E7.14636
G1 X109.44 Y130.084 E7.17474
G1 X109.594 Y129.848 E7.19728
G1 X109.781 Y129.668 E7.21805
G1 X109.866 Y129.623 E7.22574
G1 X109.896 Y129.617 E7.22819
G1 X110.831 Y129.748 E7.30372
G0 F6750 X110.869 Y129.349
G1 F1268.4 X111.425 Y129.377 E7.34826
G1 X111.996 Y129.36 E7.39396
G1 X112.538 Y129.297 E7.43761
G1 X113.088 Y129.211 E7.48214
G1 X113.17 Y129.212 E7.4887
G1 X113.344 Y129.276 E7.50354
G1 X113.577 Y129.445 E7.52656
G1 X113.85 Y129.789 E7.5617
G1 X114.038 Y130.173 E7.5959
G1 X114.214 Y130.775 E7.64608
G1 X114.281 Y131.237 E7.68342
G1 X114.299 Y131.715 E7.72169
G1 X114.264 Y132.256 E7.76506
G1 X114.181 Y132.683 E7.79986
G1 X114.035 Y133.163 E7.84
G1 X113.829 Y133.568 E7.87635
G1 X113.551 Y133.917 E7.91204
G1 X113.325 Y134.078 E7.93424
G1 X113.099 Y134.152 E7.95327
G1 X110.008 Y134.156 E8.20055
G1 X109.768 Y134.12 E8.21996
G1 X109.563 Y134.015 E8.23839
G1 X109.308 Y133.77 E8.26668
G1 X109.097 Y133.45 E8.29734
G1 X108.878 Y132.92 E8.34322
G1 X108.743 Y132.315 E8.39281
G1 X108.694 Y131.666 E8.44488
G1 X108.715 Y131.231 E8.47972
G1 X108.784 Y130.774 E8.51669
G1 X108.922 Y130.277 E8.55795
G1 X109.087 Y129.894 E8.59132
G1 X109.285 Y129.59 E8.62034
G1 X109.543 Y129.341 E8.64903
G1 X109.732 Y129.24 E8.66617
G1 X109.89 Y129.213 E8.67899
G1 X110.869 Y129.349 E8.75806
G0 F6750 X110.86 Y129.448
G0 X111.981 Y129.461
G0 X111.967 Y128.961
;TYPE:WALL-OUTER
G1 F1109.8 X112.484 Y128.901 E8.7997
G1 X113.061 Y128.81 E8.84643
G1 X113.243 Y128.813 E8.86099
G1 X113.534 Y128.92 E8.8858
G1 X113.857 Y129.155 E8.91775
G1 X114.19 Y129.574 E8.96057
G1 X114.413 Y130.029 E9.00111
G1 X114.606 Y130.691 E9.05627
G1 X114.68 Y131.203 E9.09766
G1 X114.7 Y131.716 E9.13873
G1 X114.661 Y132.311 E9.18643
G1 X114.57 Y132.782 E9.22481
G1 X114.408 Y133.312 E9.26914
G1 X114.167 Y133.787 E9.31176
G1 X113.831 Y134.208 E9.35485
G1 X113.508 Y134.439 E9.38662
G1 X113.162 Y134.552 E9.41573
G1 X109.975 Y134.556 E9.67069
G1 X109.644 Y134.506 E9.69747
G1 X109.33 Y134.345 E9.7257
G1 X108.998 Y134.026 E9.76254
G1 X108.744 Y133.64 E9.7995
G1 X108.495 Y133.04 E9.85147
G1 X108.346 Y132.37 E9.90638
G1 X108.293 Y131.677 E9.96198
G1 X108.318 Y131.181 E10.00171
G1 X108.392 Y130.69 E10.04144
G1 X108.541 Y130.151 E10.08618
G1 X108.735 Y129.701 E10.12538
G1 X108.975 Y129.333 E10.16053
G1 X109.305 Y129.014 E10.19724
G1 X109.598 Y128.857 E10.22384
G1 X109.886 Y128.808 E10.24721
G1 X110.383 Y128.88 E10.28738
G1 X110.906 Y128.95 E10.3296
G1 X111.429 Y128.977 E10.37149
G1 X111.967 Y128.961 E10.41455
G0 F6750 X112.165 Y128.938
G0 X112.221 Y129.435
G0 X112.083 Y130.548
;TYPE:SKIN
G1 F951.3 X112.698 Y130.475 E10.4641
G1 X112.849 Y130.452 E10.47632
G1 X112.924 Y130.606 E10.49002
G1 X113.048 Y131.026 E10.52505
G1 X113.093 Y131.34 E10.55043
G1 X113.107 Y131.703 E10.57949
G1 X113.081 Y132.101 E10.6114
G1 X113.023 Y132.4 E10.63577
G1 X112.926 Y132.719 E10.66244
G1 X112.824 Y132.921 E10.68054
G1 X112.791 Y132.962 E10.68475
G1 X110.203 Y132.966 E10.89179
G1 X110.156 Y132.894 E10.89867
G1 X110.012 Y132.546 E10.9288
G1 X109.923 Y132.145 E10.96166
G1 X109.886 Y131.66 E11.00057
G1 X109.902 Y131.341 E11.02613
G1 X109.953 Y131.011 E11.05284
G1 X110.045 Y130.681 E11.08025
G1 X110.141 Y130.457 E11.09974
G1 X110.146 Y130.449 E11.1005
G1 X110.756 Y130.535 E11.14978
G1 X111.413 Y130.567 E11.2024
G1 X112.083 Y130.548 E11.25602
G0 F6750 X110.327 Y130.654
G1 F951.3 X110.205 Y130.776 E11.26983
G0 F6750 X110.83 Y130.717
G1 F951.3 X110.076 Y131.471 E11.35513
G0 F6750 X110.093 Y132.019
G1 F951.3 X111.369 Y130.744 E11.49944
G0 F6750 X111.948 Y130.73
G1 F951.3 X110.186 Y132.492 E11.69879
G0 F6750 X110.459 Y132.785
G1 F951.3 X112.574 Y130.669 E11.93813
G0 F6750 X112.842 Y130.967
G1 F951.3 X111.025 Y132.784 E12.1437
G0 F6750 X111.592 Y132.783
G1 F951.3 X112.917 Y131.458 E12.2936
G0 F6750 X112.903 Y132.038
G1 F951.3 X112.159 Y132.782 E12.37778
G1 X112.089 Y132.852
;MESH:NONMESH
G0 F6750 X111.02 Y129.998
;TIME_ELAPSED:12.318839
;LAYER:2
;MESH:FalangeMedDist_Medio.stl
G0 F9000 X111.02 Y129.998 Z0.67
;TYPE:WALL-INNER
G1 F1888.9 X111.738 Y130.012 E12.43523
G1 X112.448 Y129.941 E12.49231
G1 X113.094 Y129.796 E12.54528
G1 X113.472 Y129.699 E12.5765
G1 X113.579 Y129.886 E12.59373
G1 X113.726 Y130.269 E12.62655
G1 X113.82 Y130.626 E12.65609
G1 X113.9 Y131.152 E12.69865
G1 X113.921 Y131.54 E12.72974
G1 X113.9 Y132.11 E12.77537
G1 X113.862 Y132.444 E12.80226
G1 X113.776 Y132.859 E12.83616
G1 X113.665 Y133.22 E12.86638
G1 X113.525 Y133.535 E12.89396
G1 X113.352 Y133.812 E12.92008
G1 X113.197 Y133.98 E12.93837
G1 X113.09 Y134.052 E12.94869
G1 X113.045 Y134.066 E12.95246
G1 X110.052 Y134.086 E13.1919
G1 X109.941 Y134.07 E13.20087
G1 X109.905 Y134.055 E13.20399
G1 X109.798 Y133.978 E13.21454
G1 X109.631 Y133.787 E13.23484
G1 X109.423 Y133.435 E13.26755
G1 X109.288 Y133.09 E13.29718
G1 X109.187 Y132.724 E13.32756
G1 X109.103 Y132.194 E13.37049
G1 X109.077 Y131.784 E13.40335
G1 X109.094 Y131.259 E13.44538
G1 X109.132 Y130.884 E13.47553
G1 X109.214 Y130.486 E13.50804
G1 X109.325 Y130.11 E13.5394
G1 X109.45 Y129.823 E13.56444
G1 X109.529 Y129.695 E13.57648
G1 X109.699 Y129.738 E13.59051
G1 X110.28 Y129.891 E13.63857
G1 X111.02 Y129.998 E13.69839
G0 F9000 X111.053 Y129.599
G1 F1888.9 X111.722 Y129.612 E13.75192
G1 X112.384 Y129.545 E13.80515
G1 X113.001 Y129.407 E13.85573
G1 X113.639 Y129.243 E13.90843
G1 X113.729 Y129.343 E13.91919
G1 X113.942 Y129.716 E13.95355
G1 X114.108 Y130.147 E13.9905
G1 X114.211 Y130.541 E14.02308
G1 X114.298 Y131.111 E14.06921
G1 X114.321 Y131.544 E14.1039
G1 X114.3 Y132.131 E14.15089
G1 X114.256 Y132.518 E14.18205
G1 X114.164 Y132.958 E14.21801
G1 X114.043 Y133.355 E14.25121
G1 X113.878 Y133.724 E14.28355
G1 X113.669 Y134.059 E14.31513
G1 X113.461 Y134.284 E14.33965
G1 X113.266 Y134.415 E14.35844
G1 X113.112 Y134.466 E14.37142
G1 X110.024 Y134.486 E14.61846
G1 X109.837 Y134.459 E14.63358
G1 X109.707 Y134.406 E14.64481
G1 X109.526 Y134.275 E14.66268
G1 X109.305 Y134.023 E14.6895
G1 X109.061 Y133.609 E14.72794
G1 X108.911 Y133.225 E14.76092
G1 X108.795 Y132.806 E14.7957
G1 X108.705 Y132.24 E14.84155
G1 X108.677 Y131.786 E14.87794
G1 X108.694 Y131.234 E14.92212
G1 X108.736 Y130.822 E14.95525
G1 X108.825 Y130.389 E14.99062
G1 X108.946 Y129.979 E15.02482
G1 X109.096 Y129.636 E15.05477
G1 X109.31 Y129.29 E15.08731
G1 X109.356 Y129.239 E15.09281
G1 X109.801 Y129.351 E15.12952
G1 X110.36 Y129.498 E15.17576
G1 X111.053 Y129.599 E15.23178
G0 F9000 X111.086 Y129.2
G1 F1888.9 X111.705 Y129.212 E15.28131
G1 X112.32 Y129.149 E15.33077
G1 X112.906 Y129.018 E15.37881
G1 X113.543 Y128.849 E15.43153
G1 X113.804 Y128.827 E15.45248
G1 X114.055 Y129.107 E15.48257
G1 X114.306 Y129.546 E15.52302
G1 X114.488 Y130.021 E15.56372
G1 X114.602 Y130.457 E15.59977
G1 X114.696 Y131.069 E15.6493
G1 X114.721 Y131.549 E15.68776
G1 X114.7 Y132.151 E15.73594
G1 X114.651 Y132.584 E15.77081
G1 X114.55 Y133.063 E15.80997
G1 X114.419 Y133.495 E15.84608
G1 X114.232 Y133.912 E15.88264
G1 X113.99 Y134.301 E15.91929
G1 X113.724 Y134.589 E15.95066
G1 X113.443 Y134.777 E15.9777
G1 X113.176 Y134.866 E16.00022
G1 X109.998 Y134.886 E16.25446
G1 X109.729 Y134.848 E16.2762
G1 X109.514 Y134.759 E16.29481
G1 X109.256 Y134.573 E16.32026
G1 X108.977 Y134.256 E16.35404
G1 X108.7 Y133.785 E16.39776
G1 X108.533 Y133.357 E16.43451
G1 X108.403 Y132.888 E16.47344
G1 X108.307 Y132.286 E16.52221
G1 X108.277 Y131.787 E16.5622
G1 X108.294 Y131.209 E16.60846
G1 X108.34 Y130.759 E16.64465
G1 X108.436 Y130.292 E16.68279
G1 X108.568 Y129.845 E16.72008
G1 X108.743 Y129.446 E16.75494
G1 X108.987 Y129.05 E16.79215
G1 X109.188 Y128.829 E16.81604
G1 X109.401 Y128.838 E16.8331
G1 X109.903 Y128.964 E16.87451
G1 X110.44 Y129.105 E16.91892
G1 X111.086 Y129.2 E16.97116
G0 F9000 X111.119 Y128.801
;TYPE:WALL-OUTER
G1 F1511.1 X111.688 Y128.812 E17.01669
G1 X112.256 Y128.754 E17.06236
G1 X112.811 Y128.629 E17.10787
G1 X113.474 Y128.453 E17.16275
G1 X113.87 Y128.42 E17.19454
G1 X114.017 Y128.466 E17.20686
G1 X114.379 Y128.869 E17.2502
G1 X114.671 Y129.38 E17.29728
G1 X114.868 Y129.895 E17.3414
G1 X114.993 Y130.373 E17.38092
G1 X115.094 Y131.026 E17.43378
G1 X115.121 Y131.554 E17.47608
G1 X115.1 Y132.171 E17.52547
G1 X115.046 Y132.65 E17.56403
G1 X114.936 Y133.168 E17.60639
G1 X114.795 Y133.635 E17.64542
G1 X114.586 Y134.1 E17.6862
G1 X114.311 Y134.543 E17.72792
G1 X113.986 Y134.895 E17.76624
G1 X113.622 Y135.139 E17.8013
G1 X113.242 Y135.266 E17.83335
G1 X110.763 Y135.285 E18.03168
G1 X109.972 Y135.286 E18.09496
G1 X109.622 Y135.237 E18.12323
G1 X109.315 Y135.109 E18.14984
G1 X108.986 Y134.872 E18.18228
G1 X108.651 Y134.492 E18.22281
G1 X108.339 Y133.961 E18.27208
G1 X108.152 Y133.482 E18.31321
G1 X108.012 Y132.974 E18.35537
G1 X107.909 Y132.334 E18.40723
G1 X107.877 Y131.787 E18.45106
G1 X107.894 Y131.183 E18.4994
G1 X107.944 Y130.698 E18.53841
G1 X108.046 Y130.2 E18.57907
G1 X108.192 Y129.709 E18.62005
G1 X108.391 Y129.254 E18.65978
G1 X108.664 Y128.81 E18.70148
G1 X108.973 Y128.471 E18.73818
G1 X109.101 Y128.424 E18.74909
G1 X109.457 Y128.44 E18.77759
G1 X110.005 Y128.577 E18.82278
G1 X110.52 Y128.713 E18.8654
G1 X111.119 Y128.801 E18.91383
G0 F9000 X111.319 Y128.804
G0 X111.31 Y129.304
G0 X110.988 Y130.388
;TYPE:SKIN
G1 F1133.3 X111.754 Y130.402 E18.97512
G1 X112.51 Y130.327 E19.0359
G1 X113.264 Y130.155 E19.09777
G1 X113.356 Y130.395 E19.11833
G1 X113.437 Y130.7 E19.14357
G1 X113.51 Y131.189 E19.18313
G1 X113.531 Y131.548 E19.2119
G1 X113.512 Y132.066 E19.25337
G1 X113.476 Y132.384 E19.27897
G1 X113.399 Y132.757 E19.30944
G1 X113.297 Y133.089 E19.33722
G1 X113.181 Y133.349 E19.36
G1 X113.043 Y133.571 E19.38091
G1 X112.946 Y133.676 E19.39235
G1 X110.08 Y133.696 E19.62163
G1 X110.063 Y133.688 E19.62313
G1 X109.947 Y133.556 E19.63719
G1 X109.774 Y133.262 E19.66448
G1 X109.659 Y132.968 E19.68974
G1 X109.571 Y132.65 E19.71613
G1 X109.491 Y132.151 E19.75656
G1 X109.467 Y131.771 E19.78702
G1 X109.484 Y131.271 E19.82705
G1 X109.518 Y130.943 E19.85343
G1 X109.59 Y130.589 E19.88233
G1 X109.694 Y130.239 E19.91154
G1 X109.732 Y130.15 E19.91928
G1 X110.202 Y130.274 E19.95817
G1 X110.988 Y130.388 E20.0217
G0 F9000 X112.888 Y130.425
G1 F1133.3 X113.272 Y130.808 E20.06509
G0 F9000 X113.344 Y131.446
G1 F1133.3 X112.415 Y130.517 E20.1702
G0 F9000 X111.9 Y130.567
G1 F1133.3 X113.335 Y132.002 E20.33255
G0 F9000 X113.268 Y132.501
G1 F1133.3 X111.341 Y130.574 E20.55056
G0 F9000 X110.733 Y130.532
G1 F1133.3 X113.151 Y132.95 E20.82413
G0 F9000 X112.974 Y133.339
