;FLAVOR:Marlin
;TIME:6666
;Filament used: 0m
;Layer height: 0.2
;MINX:2.14748e+06
;MINY:2.14748e+06
;MINZ:2.14748e+06
;MAXX:-2.14748e+06
;MAXY:-2.14748e+06
;MAXZ:-2.14748e+06

;Generated with Cura_SteamEngine master
T1
M104 S215
M105
M109 S215
M82 ;absolute extrusion mode
G28 ;Home
G1 Z15.0 F6000 ;Move the platform down 15mm
;Prime the extruder
G92 E0
G1 F200 E3
G92 E0
G92 E0
G92 E0
G1 F1500 E-6.5
;LAYER_COUNT:50
;LAYER:0
M107
;MESH:././gcode_generators/files/cube10mm.stl
G0 F3600 X4 Y4 Z0.2
;TYPE:WALL-INNER
G1 F1500 E0
G1 F1800 X-4 Y4 E0.10032
G1 X-4 Y-4 E0.20065
G1 X4 Y-4 E0.30097
G1 X4 Y4 E0.40129
G0 F3600 X4.4 Y4.4
G1 F1800 X-4.4 Y4.4 E0.51165
G1 X-4.4 Y-4.4 E0.622
G1 X4.4 Y-4.4 E0.73236
G1 X4.4 Y4.4 E0.84271
G0 F3600 X4.8 Y4.8
;TYPE:WALL-OUTER
G1 F1800 X-4.8 Y4.8 E0.9631
G1 X-4.8 Y-4.8 E1.08349
G1 X4.8 Y-4.8 E1.20388
G1 X4.8 Y4.8 E1.32426
G0 F3600 X4.6 Y4.8
G0 X4.33 Y4.33
G0 X3.61 Y3.61
;TYPE:SKIN
G1 F1800 X-3.61 Y3.61 E1.4148
G1 X-3.61 Y-3.61 E1.50535
G1 X3.61 Y-3.61 E1.59589
G1 X3.61 Y3.61 E1.68643
G0 F3600 X3.2 Y3.43
G1 F1800 X3.2 Y-3.43 E1.77246
G0 F3600 X2.8 Y-3.43
G1 F1800 X2.8 Y3.43 E1.85848
G0 F3600 X2.4 Y3.43
G1 F1800 X2.4 Y-3.43 E1.94451
G0 F3600 X2 Y-3.43
G1 F1800 X2 Y3.43 E2.03054
G0 F3600 X1.6 Y3.43
G1 F1800 X1.6 Y-3.43 E2.11656
G0 F3600 X1.2 Y-3.43
G1 F1800 X1.2 Y3.43 E2.20259
G0 F3600 X0.8 Y3.43
G1 F1800 X0.8 Y-3.43 E2.28862
G0 F3600 X0.4 Y-3.43
G1 F1800 X0.4 Y3.43 E2.37464
G0 F3600 X0.00 Y3.43
G1 F1800 X0.00 Y-3.43 E2.46067
G0 F3600 X-.4 Y-3.43
G1 F1800 X-.4 Y3.43 E2.5467
G0 F3600 X-.8 Y3.43
G1 F1800 X-.8 Y-3.43 E2.63273
G0 F3600 X-1.2 Y-3.43
G1 F1800 X-1.2 Y3.43 E2.71875
G0 F3600 X-1.6 Y3.43
G1 F1800 X-1.6 Y-3.43 E2.80478
G0 F3600 X-2 Y-3.43
M104 S210
G1 F1800 X-2 Y3.43 E2.89081
G0 F3600 X-2.4 Y3.43
G1 F1800 X-2.4 Y-3.43 E2.97683
G0 F3600 X-2.8 Y-3.43
G1 F1800 X-2.8 Y3.43 E3.06286
G0 F3600 X-3.2 Y3.43
G1 F1800 X-3.2 Y-3.43 E3.14889
G1 X-3.2 Y-3.47
;MESH:NONMESH
G0 F600 X-3.2 Y-3.47 Z0.4
G0 F3600 X4 Y4
;TIME_ELAPSED:11.242019
;LAYER:1
M106 S255
;TYPE:WALL-INNER
;MESH:././gcode_generators/files/cube10mm.stl
G1 F2700 X-4 Y4 E3.24921
G1 X-4 Y-4 E3.34953
G1 X4 Y-4 E3.44986
G1 X4 Y4 E3.55018
G0 F5400 X4.4 Y4.4
G1 F2700 X-4.4 Y4.4 E3.66053
G1 X-4.4 Y-4.4 E3.77089
G1 X4.4 Y-4.4 E3.88124
G1 X4.4 Y4.4 E3.9916
G0 F5400 X4.8 Y4.8
;TYPE:WALL-OUTER
G1 F1800 X-4.8 Y4.8 E4.11199
G1 X-4.8 Y-4.8 E4.23238
G1 X4.8 Y-4.8 E4.35276
G1 X4.8 Y4.8 E4.47315
G0 F5400 X4.6 Y4.8
G0 X4.33 Y4.33
G0 X3.61 Y3.61
;TYPE:SKIN
G1 F1800 X-3.61 Y3.61 E4.56369
G1 X-3.61 Y-3.61 E4.65423
G1 X3.61 Y-3.61 E4.74477
G1 X3.61 Y3.61 E4.83532
G0 F5400 X3.2 Y3.43
G1 F1800 X3.2 Y-3.43 E4.92134
G0 F5400 X2.8 Y-3.43
G1 F1800 X2.8 Y3.43 E5.00737
G0 F5400 X2.4 Y3.43
G1 F1800 X2.4 Y-3.43 E5.0934
G0 F5400 X2 Y-3.43
G1 F1800 X2 Y3.43 E5.17942
G0 F5400 X1.6 Y3.43
G1 F1800 X1.6 Y-3.43 E5.26545
G0 F5400 X1.2 Y-3.43
G1 F1800 X1.2 Y3.43 E5.35148
G0 F5400 X0.8 Y3.43
G1 F1800 X0.8 Y-3.43 E5.4375
G0 F5400 X0.4 Y-3.43
G1 F1800 X0.4 Y3.43 E5.52353
G0 F5400 X0.00 Y3.43
G1 F1800 X0.00 Y-3.43 E5.60956
G0 F5400 X-.4 Y-3.43
G1 F1800 X-.4 Y3.43 E5.69559
G0 F5400 X-.8 Y3.43
G1 F1800 X-.8 Y-3.43 E5.78161
G0 F5400 X-1.2 Y-3.43
G1 F1800 X-1.2 Y3.43 E5.86764
G0 F5400 X-1.6 Y3.43
G1 F1800 X-1.6 Y-3.43 E5.95367
G0 F5400 X-2 Y-3.43
G1 F1800 X-2 Y3.43 E6.03969
G0 F5400 X-2.4 Y3.43
G1 F1800 X-2.4 Y-3.43 E6.12572
G0 F5400 X-2.8 Y-3.43
G1 F1800 X-2.8 Y3.43 E6.21175
G0 F5400 X-3.2 Y3.43
G1 F1800 X-3.2 Y-3.43 E6.29777
G1 X-3.2 Y-3.47
;MESH:NONMESH
G0 F600 X-3.2 Y-3.47 Z0.6
G0 F5400 X4 Y4
;TIME_ELAPSED:19.506788
;LAYER:2
;TYPE:WALL-INNER
;MESH:././gcode_generators/files/cube10mm.stl
G1 F3600 X-4 Y4 E6.3981
G1 X-4 Y-4 E6.49842
G1 X4 Y-4 E6.59874
G1 X4 Y4 E6.69907
G0 F7200 X4.4 Y4.4
G1 F3600 X-4.4 Y4.4 E6.80942
G1 X-4.4 Y-4.4 E6.91978
G1 X4.4 Y-4.4 E7.03013
G1 X4.4 Y4.4 E7.14049
G0 F7200 X4.8 Y4.8
;TYPE:WALL-OUTER
G1 F1800 X-4.8 Y4.8 E7.26087
G1 X-4.8 Y-4.8 E7.38126
G1 X4.8 Y-4.8 E7.50165
G1 X4.8 Y4.8 E7.62204
G0 F7200 X4.6 Y4.8
G0 X4.33 Y4.33
G0 X3.61 Y3.61
;TYPE:SKIN
G1 F1800 X-3.61 Y3.61 E7.71258
G1 X-3.61 Y-3.61 E7.80312
G1 X3.61 Y-3.61 E7.89366
G1 X3.61 Y3.61 E7.9842
G0 F7200 X3.2 Y3.43
G1 F1800 X3.2 Y-3.43 E8.07023
G0 F7200 X2.8 Y-3.43
G1 F1800 X2.8 Y3.43 E8.15626
G0 F7200 X2.4 Y3.43
G1 F1800 X2.4 Y-3.43 E8.24228
G0 F7200 X2 Y-3.43
G1 F1800 X2 Y3.43 E8.32831
G0 F7200 X1.6 Y3.43
G1 F1800 X1.6 Y-3.43 E8.41434
G0 F7200 X1.2 Y-3.43
G1 F1800 X1.2 Y3.43 E8.50037
G0 F7200 X0.8 Y3.43
G1 F1800 X0.8 Y-3.43 E8.58639
G0 F7200 X0.4 Y-3.43
G1 F1800 X0.4 Y3.43 E8.67242
G0 F7200 X0.00 Y3.43
G1 F1800 X0.00 Y-3.43 E8.75845
G0 F7200 X-.4 Y-3.43
G1 F1800 X-.4 Y3.43 E8.84447
G0 F7200 X-.8 Y3.43
G1 F1800 X-.8 Y-3.43 E8.9305
G0 F7200 X-1.2 Y-3.43
G1 F1800 X-1.2 Y3.43 E9.01653
G0 F7200 X-1.6 Y3.43
G1 F1800 X-1.6 Y-3.43 E9.10255
G0 F7200 X-2 Y-3.43
G1 F1800 X-2 Y3.43 E9.18858
G0 F7200 X-2.4 Y3.43
G1 F1800 X-2.4 Y-3.43 E9.27461
G0 F7200 X-2.8 Y-3.43
G1 F1800 X-2.8 Y3.43 E9.36063
G0 F7200 X-3.2 Y3.43
G1 F1800 X-3.2 Y-3.43 E9.44666
G1 X-3.2 Y-3.47
;MESH:NONMESH
G0 F600 X-3.2 Y-3.47 Z0.8
G0 F7200 X4 Y4
;TIME_ELAPSED:27.411500
;LAYER:3
;TYPE:WALL-INNER
;MESH:././gcode_generators/files/cube10mm.stl
G1 F3600 X-4 Y4 E9.54698
G1 X-4 Y-4 E9.64731
G1 X4 Y-4 E9.74763
G1 X4 Y4 E9.84795
G0 F7200 X4.4 Y4.4
G1 F3600 X-4.4 Y4.4 E9.95831
G1 X-4.4 Y-4.4 E10.06866
G1 X4.4 Y-4.4 E10.17902
G1 X4.4 Y4.4 E10.28937
G0 F7200 X4.8 Y4.8
;TYPE:WALL-OUTER
G1 F1800 X-4.8 Y4.8 E10.40976
G1 X-4.8 Y-4.8 E10.53015
G1 X4.8 Y-4.8 E10.65054
G1 X4.8 Y4.8 E10.77092
G0 F7200 X4.6 Y4.8
G0 X4.33 Y4.33
G0 X3.61 Y3.61
;TYPE:SKIN
G1 F1800 X-3.61 Y3.61 E10.86147
G1 X-3.61 Y-3.61 E10.95201
G1 X3.61 Y-3.61 E11.04255
G1 X3.61 Y3.61 E11.13309
G0 F7200 X3.2 Y3.43
G1 F1800 X3.2 Y-3.43 E11.21912
G0 F7200 X2.8 Y-3.43
G1 F1800 X2.8 Y3.43 E11.30514
G0 F7200 X2.4 Y3.43
G1 F1800 X2.4 Y-3.43 E11.39117
G0 F7200 X2 Y-3.43
G1 F1800 X2 Y3.43 E11.4772
G0 F7200 X1.6 Y3.43
G1 F1800 X1.6 Y-3.43 E11.56323
G0 F7200 X1.2 Y-3.43
G1 F1800 X1.2 Y3.43 E11.64925
G0 F7200 X0.8 Y3.43
G1 F1800 X0.8 Y-3.43 E11.73528
G0 F7200 X0.4 Y-3.43
G1 F1800 X0.4 Y3.43 E11.82131
G0 F7200 X0.00 Y3.43
G1 F1800 X0.00 Y-3.43 E11.90733
G0 F7200 X-.4 Y-3.43
G1 F1800 X-.4 Y3.43 E11.99336
G0 F7200 X-.8 Y3.43
G1 F1800 X-.8 Y-3.43 E12.07939
G0 F7200 X-1.2 Y-3.43
G1 F1800 X-1.2 Y3.43 E12.16541
G0 F7200 X-1.6 Y3.43
G1 F1800 X-1.6 Y-3.43 E12.25144
G0 F7200 X-2 Y-3.43
G1 F1800 X-2 Y3.43 E12.33747
G0 F7200 X-2.4 Y3.43
G1 F1800 X-2.4 Y-3.43 E12.42349
G0 F7200 X-2.8 Y-3.43
G1 F1800 X-2.8 Y3.43 E12.50952
G0 F7200 X-3.2 Y3.43
G1 F1800 X-3.2 Y-3.43 E12.59555
G1 X-3.2 Y-3.47
;MESH:NONMESH
G0 F600 X-3.2 Y-3.47 Z1
G0 F7200 X0.00 Y-3.84
;TIME_ELAPSED:35.256512
;LAYER:4
;TYPE:FILL
;MESH:././gcode_generators/files/cube10mm.stl
G1 F3600 X0.00 Y3.84 E12.69186
G0 F7200 X0.4 Y3.84
G1 F3600 X0.4 Y-3.84 E12.78817
G0 F7200 X0.8 Y-3.84
G1 F3600 X0.8 Y3.84 E12.88448
G0 F7200 X1.2 Y3.84
G1 F3600 X1.2 Y-3.84 E12.98079
G0 F7200 X1.6 Y-3.84
G1 F3600 X1.6 Y3.84 E13.0771
G0 F7200 X2 Y3.84
G1 F3600 X2 Y-3.84 E13.17341
G0 F7200 X2.4 Y-3.84
G1 F3600 X2.4 Y3.84 E13.26972
G0 F7200 X2.8 Y3.84
G1 F3600 X2.8 Y-3.84 E13.36603
G0 F7200 X3.2 Y-3.84
G1 F3600 X3.2 Y3.84 E13.46234
G0 F7200 X3.6 Y3.84
G1 F3600 X3.6 Y-3.84 E13.55865
G1 X3.6 Y-3.88
G0 F7200 X-.4 Y-3.84
G1 F3600 X-.4 Y3.84 E13.65496
G0 F7200 X-.8 Y3.84
G1 F3600 X-.8 Y-3.84 E13.75127
G0 F7200 X-1.2 Y-3.84
G1 F3600 X-1.2 Y3.84 E13.84758
G0 F7200 X-1.6 Y3.84
G1 F3600 X-1.6 Y-3.84 E13.94389
G0 F7200 X-2 Y-3.84
G1 F3600 X-2 Y3.84 E14.0402
G0 F7200 X-2.4 Y3.84
G1 F3600 X-2.4 Y-3.84 E14.13651
G0 F7200 X-2.8 Y-3.84
G1 F3600 X-2.8 Y3.84 E14.23282
G0 F7200 X-3.2 Y3.84
G1 F3600 X-3.2 Y-3.84 E14.32913
G0 F7200 X-3.6 Y-3.84
G1 F3600 X-3.6 Y3.84 E14.42544
G1 X-3.6 Y3.88
G0 F7200 X4 Y4
;TYPE:WALL-INNER
G1 F3600 X-4 Y4 E14.52576
G1 X-4 Y-4 E14.62609
G1 X4 Y-4 E14.72641
G1 X4 Y4 E14.82673
G0 F7200 X4.4 Y4.4
G1 F3600 X-4.4 Y4.4 E14.93709
G1 X-4.4 Y-4.4 E15.04744
G1 X4.4 Y-4.4 E15.1578
G1 X4.4 Y4.4 E15.26815
G0 F7200 X4.8 Y4.8
;TYPE:WALL-OUTER
G1 F1800 X-4.8 Y4.8 E15.38854
G1 X-4.8 Y-4.8 E15.50893
G1 X4.8 Y-4.8 E15.62932
G1 X4.8 Y4.8 E15.7497
G0 F7200 X4.6 Y4.8
G0 X4 Y4.118
;MESH:NONMESH
G0 F600 X4 Y4.118 Z1.2
G0 F7200 X0.00 Y-3.84
;TIME_ELAPSED:40.963196
;LAYER:5
;TYPE:FILL
;MESH:././gcode_generators/files/cube10mm.stl
G1 F3600 X0.00 Y3.84 E15.84601
G0 F7200 X0.4 Y3.84
G1 F3600 X0.4 Y-3.84 E15.94232
G0 F7200 X0.8 Y-3.84
G1 F3600 X0.8 Y3.84 E16.03863
G0 F7200 X1.2 Y3.84
G1 F3600 X1.2 Y-3.84 E16.13494
G0 F7200 X1.6 Y-3.84
G1 F3600 X1.6 Y3.84 E16.23125
G0 F7200 X2 Y3.84
G1 F3600 X2 Y-3.84 E16.32756
G0 F7200 X2.4 Y-3.84
G1 F3600 X2.4 Y3.84 E16.42387
G0 F7200 X2.8 Y3.84
G1 F3600 X2.8 Y-3.84 E16.52018
G0 F7200 X3.2 Y-3.84
G1 F3600 X3.2 Y3.84 E16.61649
G0 F7200 X3.6 Y3.84
G1 F3600 X3.6 Y-3.84 E16.7128
G1 X3.6 Y-3.88
G0 F7200 X-.4 Y-3.84
G1 F3600 X-.4 Y3.84 E16.80911
G0 F7200 X-.8 Y3.84
G1 F3600 X-.8 Y-3.84 E16.90542
G0 F7200 X-1.2 Y-3.84
G1 F3600 X-1.2 Y3.84 E17.00173
G0 F7200 X-1.6 Y3.84
G1 F3600 X-1.6 Y-3.84 E17.09804
G0 F7200 X-2 Y-3.84
G1 F3600 X-2 Y3.84 E17.19435
G0 F7200 X-2.4 Y3.84
G1 F3600 X-2.4 Y-3.84 E17.29066
G0 F7200 X-2.8 Y-3.84
G1 F3600 X-2.8 Y3.84 E17.38697
G0 F7200 X-3.2 Y3.84
G1 F3600 X-3.2 Y-3.84 E17.48328
G0 F7200 X-3.6 Y-3.84
G1 F3600 X-3.6 Y3.84 E17.57959
G1 X-3.6 Y3.88
G0 F7200 X4 Y4
;TYPE:WALL-INNER
G1 F3600 X-4 Y4 E17.67992
G1 X-4 Y-4 E17.78024
G1 X4 Y-4 E17.88056
G1 X4 Y4 E17.98089
G0 F7200 X4.4 Y4.4
G1 F3600 X-4.4 Y4.4 E18.09124
G1 X-4.4 Y-4.4 E18.2016
G1 X4.4 Y-4.4 E18.31195
G1 X4.4 Y4.4 E18.42231
G0 F7200 X4.8 Y4.8
;TYPE:WALL-OUTER
G1 F1800 X-4.8 Y4.8 E18.54269
G1 X-4.8 Y-4.8 E18.66308
G1 X4.8 Y-4.8 E18.78347
G1 X4.8 Y4.8 E18.90386
G0 F7200 X4.6 Y4.8
G0 X4 Y4.118
;MESH:NONMESH
G0 F600 X4 Y4.118 Z1.4
G0 F7200 X0.00 Y-3.84
;TIME_ELAPSED:46.669880
;LAYER:6
;TYPE:FILL
;MESH:././gcode_generators/files/cube10mm.stl
G1 F3600 X0.00 Y3.84 E19.00017
G0 F7200 X0.4 Y3.84
G1 F3600 X0.4 Y-3.84 E19.09648
G0 F7200 X0.8 Y-3.84
G1 F3600 X0.8 Y3.84 E19.19279
G0 F7200 X1.2 Y3.84
G1 F3600 X1.2 Y-3.84 E19.2891
G0 F7200 X1.6 Y-3.84
G1 F3600 X1.6 Y3.84 E19.38541
G0 F7200 X2 Y3.84
G1 F3600 X2 Y-3.84 E19.48172
G0 F7200 X2.4 Y-3.84
G1 F3600 X2.4 Y3.84 E19.57803
G0 F7200 X2.8 Y3.84
G1 F3600 X2.8 Y-3.84 E19.67434
G0 F7200 X3.2 Y-3.84
G1 F3600 X3.2 Y3.84 E19.77065
G0 F7200 X3.6 Y3.84
G1 F3600 X3.6 Y-3.84 E19.86696
G1 X3.6 Y-3.88
G0 F7200 X-.4 Y-3.84
G1 F3600 X-.4 Y3.84 E19.96327
G0 F7200 X-.8 Y3.84
G1 F3600 X-.8 Y-3.84 E20.05958
G0 F7200 X-1.2 Y-3.84
G1 F3600 X-1.2 Y3.84 E20.15589
G0 F7200 X-1.6 Y3.84
G1 F3600 X-1.6 Y-3.84 E20.2522
G0 F7200 X-2 Y-3.84
G1 F3600 X-2 Y3.84 E20.34851
G0 F7200 X-2.4 Y3.84
G1 F3600 X-2.4 Y-3.84 E20.44482
G0 F7200 X-2.8 Y-3.84
G1 F3600 X-2.8 Y3.84 E20.54113
G0 F7200 X-3.2 Y3.84
G1 F3600 X-3.2 Y-3.84 E20.63744
G0 F7200 X-3.6 Y-3.84
G1 F3600 X-3.6 Y3.84 E20.73375
G1 X-3.6 Y3.88
G0 F7200 X4 Y4
;TYPE:WALL-INNER
G1 F3600 X-4 Y4 E20.83407
G1 X-4 Y-4 E20.93439
G1 X4 Y-4 E21.03472
G1 X4 Y4 E21.13504
G0 F7200 X4.4 Y4.4
G1 F3600 X-4.4 Y4.4 E21.24539
G1 X-4.4 Y-4.4 E21.35575
G1 X4.4 Y-4.4 E21.46611
G1 X4.4 Y4.4 E21.57646
G0 F7200 X4.8 Y4.8
;TYPE:WALL-OUTER
G1 F1800 X-4.8 Y4.8 E21.69685
G1 X-4.8 Y-4.8 E21.81724
G1 X4.8 Y-4.8 E21.93762
G1 X4.8 Y4.8 E22.05801
G0 F7200 X4.6 Y4.8
G0 X4 Y4.118
;MESH:NONMESH
G0 F600 X4 Y4.118 Z1.6
G0 F7200 X0.00 Y-3.84
;TIME_ELAPSED:52.376564
;LAYER:7
;TYPE:FILL
;MESH:././gcode_generators/files/cube10mm.stl
G1 F3600 X0.00 Y3.84 E22.15432
G0 F7200 X0.4 Y3.84
G1 F3600 X0.4 Y-3.84 E22.25063
G0 F7200 X0.8 Y-3.84
G1 F3600 X0.8 Y3.84 E22.34694
G0 F7200 X1.2 Y3.84
G1 F3600 X1.2 Y-3.84 E22.44325
G0 F7200 X1.6 Y-3.84
G1 F3600 X1.6 Y3.84 E22.53956
G0 F7200 X2 Y3.84
G1 F3600 X2 Y-3.84 E22.63587
G0 F7200 X2.4 Y-3.84
G1 F3600 X2.4 Y3.84 E22.73218
G0 F7200 X2.8 Y3.84
G1 F3600 X2.8 Y-3.84 E22.82849
G0 F7200 X3.2 Y-3.84
G1 F3600 X3.2 Y3.84 E22.9248
G0 F7200 X3.6 Y3.84
G1 F3600 X3.6 Y-3.84 E23.02111
G1 X3.6 Y-3.88
G0 F7200 X-.4 Y-3.84
G1 F3600 X-.4 Y3.84 E23.11742
G0 F7200 X-.8 Y3.84
G1 F3600 X-.8 Y-3.84 E23.21373
G0 F7200 X-1.2 Y-3.84
G1 F3600 X-1.2 Y3.84 E23.31004
G0 F7200 X-1.6 Y3.84
G1 F3600 X-1.6 Y-3.84 E23.40635
G0 F7200 X-2 Y-3.84
G1 F3600 X-2 Y3.84 E23.50266
G0 F7200 X-2.4 Y3.84
G1 F3600 X-2.4 Y-3.84 E23.59897
G0 F7200 X-2.8 Y-3.84
G1 F3600 X-2.8 Y3.84 E23.69528
G0 F7200 X-3.2 Y3.84
G1 F3600 X-3.2 Y-3.84 E23.79159
G0 F7200 X-3.6 Y-3.84
G1 F3600 X-3.6 Y3.84 E23.8879
G1 X-3.6 Y3.88
G0 F7200 X4 Y4
;TYPE:WALL-INNER
G1 F3600 X-4 Y4 E23.98822
G1 X-4 Y-4 E24.08855
G1 X4 Y-4 E24.18887
G1 X4 Y4 E24.28919
G0 F7200 X4.4 Y4.4
G1 F3600 X-4.4 Y4.4 E24.39955
G1 X-4.4 Y-4.4 E24.5099
G1 X4.4 Y-4.4 E24.62026
G1 X4.4 Y4.4 E24.73061
G0 F7200 X4.8 Y4.8
;TYPE:WALL-OUTER
G1 F1800 X-4.8 Y4.8 E24.851
G1 X-4.8 Y-4.8 E24.97139
G1 X4.8 Y-4.8 E25.09178
G1 X4.8 Y4.8 E25.21217
G0 F7200 X4.6 Y4.8
G0 X4 Y4.118
;MESH:NONMESH
G0 F600 X4 Y4.118 Z1.8
G0 F7200 X0.00 Y-3.84
;TIME_ELAPSED:58.083248
;LAYER:8
;TYPE:FILL
;MESH:././gcode_generators/files/cube10mm.stl
G1 F3600 X0.00 Y3.84 E25.30848
G0 F7200 X0.4 Y3.84
G1 F3600 X0.4 Y-3.84 E25.40479
G0 F7200 X0.8 Y-3.84
G1 F3600 X0.8 Y3.84 E25.5011
G0 F7200 X1.2 Y3.84
G1 F3600 X1.2 Y-3.84 E25.59741
G0 F7200 X1.6 Y-3.84
G1 F3600 X1.6 Y3.84 E25.69372
G0 F7200 X2 Y3.84
G1 F3600 X2 Y-3.84 E25.79003
G0 F7200 X2.4 Y-3.84
G1 F3600 X2.4 Y3.84 E25.88634
G0 F7200 X2.8 Y3.84
G1 F3600 X2.8 Y-3.84 E25.98265
G0 F7200 X3.2 Y-3.84
G1 F3600 X3.2 Y3.84 E26.07896
G0 F7200 X3.6 Y3.84
G1 F3600 X3.6 Y-3.84 E26.17527
G1 X3.6 Y-3.88
G0 F7200 X-.4 Y-3.84
G1 F3600 X-.4 Y3.84 E26.27158
G0 F7200 X-.8 Y3.84
G1 F3600 X-.8 Y-3.84 E26.36789
G0 F7200 X-1.2 Y-3.84
G1 F3600 X-1.2 Y3.84 E26.4642
G0 F7200 X-1.6 Y3.84
G1 F3600 X-1.6 Y-3.84 E26.56051
G0 F7200 X-2 Y-3.84
G1 F3600 X-2 Y3.84 E26.65682
G0 F7200 X-2.4 Y3.84
G1 F3600 X-2.4 Y-3.84 E26.75313
G0 F7200 X-2.8 Y-3.84
G1 F3600 X-2.8 Y3.84 E26.84944
G0 F7200 X-3.2 Y3.84
G1 F3600 X-3.2 Y-3.84 E26.94575
G0 F7200 X-3.6 Y-3.84
G1 F3600 X-3.6 Y3.84 E27.04206
G1 X-3.6 Y3.88
G0 F7200 X4 Y4
;TYPE:WALL-INNER
G1 F3600 X-4 Y4 E27.14238
G1 X-4 Y-4 E27.2427
G1 X4 Y-4 E27.34302
G1 X4 Y4 E27.44335
G0 F7200 X4.4 Y4.4
G1 F3600 X-4.4 Y4.4 E27.5537
G1 X-4.4 Y-4.4 E27.66406
G1 X4.4 Y-4.4 E27.77441
G1 X4.4 Y4.4 E27.88477
G0 F7200 X4.8 Y4.8
;TYPE:WALL-OUTER
G1 F1800 X-4.8 Y4.8 E28.00516
G1 X-4.8 Y-4.8 E28.12554
G1 X4.8 Y-4.8 E28.24593
G1 X4.8 Y4.8 E28.36632
G0 F7200 X4.6 Y4.8
G0 X4 Y4.118
;MESH:NONMESH
G0 F600 X4 Y4.118 Z2
G0 F7200 X0.00 Y-3.84
;TIME_ELAPSED:63.789932
;LAYER:9
;TYPE:FILL
;MESH:././gcode_generators/files/cube10mm.stl
G1 F3600 X0.00 Y3.84 E28.46263
G0 F7200 X0.4 Y3.84
G1 F3600 X0.4 Y-3.84 E28.55894
G0 F7200 X0.8 Y-3.84
G1 F3600 X0.8 Y3.84 E28.65525
G0 F7200 X1.2 Y3.84
G1 F3600 X1.2 Y-3.84 E28.75156
G0 F7200 X1.6 Y-3.84
G1 F3600 X1.6 Y3.84 E28.84787
G0 F7200 X2 Y3.84
G1 F3600 X2 Y-3.84 E28.94418
G0 F7200 X2.4 Y-3.84
G1 F3600 X2.4 Y3.84 E29.04049
G0 F7200 X2.8 Y3.84
G1 F3600 X2.8 Y-3.84 E29.1368
G0 F7200 X3.2 Y-3.84
G1 F3600 X3.2 Y3.84 E29.23311
G0 F7200 X3.6 Y3.84
G1 F3600 X3.6 Y-3.84 E29.32942
G1 X3.6 Y-3.88
G0 F7200 X-.4 Y-3.84
G1 F3600 X-.4 Y3.84 E29.42573
G0 F7200 X-.8 Y3.84
G1 F3600 X-.8 Y-3.84 E29.52204
G0 F7200 X-1.2 Y-3.84
G1 F3600 X-1.2 Y3.84 E29.61835
G0 F7200 X-1.6 Y3.84
G1 F3600 X-1.6 Y-3.84 E29.71466
G0 F7200 X-2 Y-3.84
G1 F3600 X-2 Y3.84 E29.81097
G0 F7200 X-2.4 Y3.84
G1 F3600 X-2.4 Y-3.84 E29.90728
G0 F7200 X-2.8 Y-3.84
G1 F3600 X-2.8 Y3.84 E30.00359
G0 F7200 X-3.2 Y3.84
G1 F3600 X-3.2 Y-3.84 E30.0999
G0 F7200 X-3.6 Y-3.84
G1 F3600 X-3.6 Y3.84 E30.19621
G1 X-3.6 Y3.88
G0 F7200 X4 Y4
;TYPE:WALL-INNER
G1 F3600 X-4 Y4 E30.29653
G1 X-4 Y-4 E30.39686
G1 X4 Y-4 E30.49718
G1 X4 Y4 E30.5975
G0 F7200 X4.4 Y4.4
G1 F3600 X-4.4 Y4.4 E30.70786
G1 X-4.4 Y-4.4 E30.81821
G1 X4.4 Y-4.4 E30.92857
G1 X4.4 Y4.4 E31.03892
G0 F7200 X4.8 Y4.8
;TYPE:WALL-OUTER
G1 F1800 X-4.8 Y4.8 E31.15931
G1 X-4.8 Y-4.8 E31.2797
G1 X4.8 Y-4.8 E31.40009
G1 X4.8 Y4.8 E31.52047
G0 F7200 X4.6 Y4.8
G0 X4 Y4.118
;MESH:NONMESH
G0 F600 X4 Y4.118 Z2.2
G0 F7200 X0.00 Y-3.84
;TIME_ELAPSED:69.496616
;LAYER:10
;TYPE:FILL
;MESH:././gcode_generators/files/cube10mm.stl
G1 F3600 X0.00 Y3.84 E31.61678
G0 F7200 X0.4 Y3.84
G1 F3600 X0.4 Y-3.84 E31.71309
G0 F7200 X0.8 Y-3.84
